X: 1
T:Gan Ainm
R:jig
M:6/8
L:1/8
K:D
~F3 FED|~F3 FEF|DFA dAF|A,/B,/CE A,CE|!
~F3 FED|~F3 FEF|DFA dAF|1 A,CE D2E:|2 A,CE D2e||!
fed edc|dcB AFA|fed edc|dfb a2g|!
fed edc|dcB AFA|DFA dAF|A,CE D2e|!
~f3 edc|~d3 ABA|~f3 edc|dfb a2g|!
~f3 edc|~d3 ABA|DFA dAF|A,CE D2E||!
